assets/svg/1F1EE-1F1F9.svg

<svg xmlns="http://www.w3.org/2000/svg" viewBox="0 0 64 64" enable-background="new 0 0 64 64"><path fill="#e6e7e8" d="m56.971 12.885h-50.02c-3.794 0-6.871 3.68-6.871 8.218v5.576 13.795 5.577c0 4.537 3.075 8.218 6.873 8.218h50.02c3.795 0 6.87-3.681 6.87-8.218v-5.577-13.795-5.576c0-4.538-3.075-8.218-6.872-8.218"/><path fill="#29b473" d="m21.09 12.885h-14.06c-3.794 0-6.871 3.68-6.871 8.218v5.576 13.795 5.577c0 4.537 3.074 8.218 6.873 8.218h14.06v-41.38l0 0"/><path fill="#ec1c24" d="m57.05 12.885h-14.05v41.39h14.05c3.796 0 6.871-3.68 6.871-8.217v-5.578-13.796-5.576c0-4.538-3.073-8.218-6.873-8.218"/><path fill="#239a60" d="M6.952,13.298c-3.798,0-6.873,3.643-6.873,8.136v5.52l0,0v13.657l0,0v5.521   c0,4.494,3.075,8.138,6.873,8.138h12.171V40.613l0,0V26.954l0,0V13.298H6.952z"/></svg>

<?xml version="1.0" encoding="UTF-8" standalone="no"?>
<!-- Generator: Adobe Illustrator 16.0.0, SVG Export Plug-In . SVG Version: 6.00 Build 0)  -->

<svg
   xmlns:dc="http://purl.org/dc/elements/1.1/"
   xmlns:cc="http://creativecommons.org/ns#"
   xmlns:rdf="http://www.w3.org/1999/02/22-rdf-syntax-ns#"
   xmlns:svg="http://www.w3.org/2000/svg"
   xmlns="http://www.w3.org/2000/svg"
   xmlns:sodipodi="http://sodipodi.sourceforge.net/DTD/sodipodi-0.dtd"
   xmlns:inkscape="http://www.inkscape.org/namespaces/inkscape"
   version="1.1"
   id="Layer_1"
   x="0px"
   y="0px"
   width="64px"
   height="64px"
   viewBox="0 0 64 64"
   enable-background="new 0 0 64 64"
   xml:space="preserve"
   inkscape:version="0.48.5 r10040"
   sodipodi:docname="1F1EE-1F1F9.svg"
   inkscape:export-filename="D:\TESTINGEMOJI\SVGTEST\1F1EE-1F1F9.png"
   inkscape:export-xdpi="90"
   inkscape:export-ydpi="90"><metadata
   id="metadata3500"><rdf:RDF><cc:Work
       rdf:about=""><dc:format>image/svg+xml</dc:format><dc:type
         rdf:resource="http://purl.org/dc/dcmitype/StillImage" /><dc:title></dc:title></cc:Work></rdf:RDF></metadata><defs
   id="defs3498" /><sodipodi:namedview
   pagecolor="#ffffff"
   bordercolor="#666666"
   borderopacity="1"
   objecttolerance="10"
   gridtolerance="10"
   guidetolerance="10"
   inkscape:pageopacity="0"
   inkscape:pageshadow="2"
   inkscape:window-width="640"
   inkscape:window-height="480"
   id="namedview3496"
   showgrid="false"
   inkscape:zoom="3.6875"
   inkscape:cx="32"
   inkscape:cy="32"
   inkscape:window-x="618"
   inkscape:window-y="312"
   inkscape:window-maximized="0"
   inkscape:current-layer="Layer_1" />
<g
   id="g3484">
	<g
   id="g3486">
		<path
   fill="#E6E7E8"
   d="M56.971,12.885H6.95c-3.794,0-6.871,3.68-6.871,8.218v5.576v13.795v5.577c0,4.537,3.075,8.218,6.873,8.218    h50.021c3.795,0,6.87-3.681,6.87-8.218v-5.577V26.679v-5.576C63.843,16.565,60.768,12.885,56.971,12.885z"
   id="path3488" />
	</g>
	<path
   fill="#29B473"
   d="M21.085,12.885H7.028c-3.794,0-6.871,3.68-6.871,8.218v5.576v13.795v5.577c0,4.537,3.074,8.218,6.873,8.218   h14.055V12.885L21.085,12.885z"
   id="path3490" />
	<path
   fill="#EC1C24"
   d="M57.048,12.885H42.995V54.27H57.05c3.796,0,6.871-3.68,6.871-8.217v-5.578V26.679v-5.576   C63.921,16.565,60.848,12.885,57.048,12.885z"
   id="path3492" />
	<path
   fill="#239A60"
   d="M6.952,13.298c-3.798,0-6.873,3.643-6.873,8.136v5.52l0,0v13.657l0,0v5.521   c0,4.494,3.075,8.138,6.873,8.138h12.171V40.613l0,0V26.954l0,0V13.298H6.952z"
   id="path3494" />
</g>
</svg>
